modules/themify-icons/icons/layers-alt.svg

<?xml version="1.0" encoding="utf-8"?>
<!-- Generated by IcoMoon.io -->
<!DOCTYPE svg PUBLIC "-//W3C//DTD SVG 1.1//EN" "http://www.w3.org/Graphics/SVG/1.1/DTD/svg11.dtd">
<svg version="1.1" xmlns="http://www.w3.org/2000/svg" xmlns:xlink="http://www.w3.org/1999/xlink" width="17" height="17" viewBox="0 0 17 17">
<g>
</g>
	<path d="M11 1h-11v9h11v-9zM10 9h-9v-7h9v7zM14 13h-11v-1.981h1v0.981h9v-7h-0.994v-1h1.994v9zM17 7v9h-11v-1.981h1v0.981h9v-7h-0.994v-1h1.994z" fill="#000000" />
</svg>

<svg xmlns="http://www.w3.org/2000/svg" width="17" height="17" viewBox="0 0 17 17"><path d="M11 1H0v9h11V1zm-1 8H1V2h9v7zm4 4H3v-1.981h1V12h9V5h-.994V4H14v9zm3-6v9H6v-1.981h1V15h9V8h-.994V7H17z"/></svg>
